public/images/actions/tiny-burn.svg

<?xml version="1.0" encoding="UTF-8"?>
<svg width="16px" height="16px" viewBox="0 0 16 16" version="1.1" xmlns="http://www.w3.org/2000/svg" xmlns:xlink="http://www.w3.org/1999/xlink">
    <!-- Generator: Sketch 56.3 (81716) - https://sketch.com -->
    <title>atoms / icon / 16px / burn</title>
    <desc>Created with Sketch.</desc>
    <g id="atoms-/-icon-/-16px-/-burn" stroke="none" stroke-width="1" fill="none" fill-rule="evenodd">
        <path d="M7.68411972,1.89961526 C7.55514386,2.94126454 6.90501711,3.97743751 5.8745116,4.8173 C3.86026821,6.45890934 2.73419727,8.20716229 2.7501706,9.78984273 C2.76967415,11.7234143 3.93087889,13.4480297 5.7648083,14.1686198 C5.82311841,13.4251918 6.09780053,12.8369364 6.79011728,11.8101873 L6.81698151,11.7703524 C7.26701598,11.1030392 7.49734868,10.6950717 7.63013062,10.3251829 L8.09724873,9.02393881 L8.93333924,10.1250239 C9.74863237,11.1987199 10.1839149,12.5549457 10.2419213,14.1359175 C11.9884746,13.4524504 13.0593751,12.0635785 13.2297214,10.1756083 C13.3751865,8.57054605 12.730295,6.94601202 11.4038791,5.39052262 C11.1792099,5.71477666 10.9704458,5.95817648 10.7737862,6.11533258 C10.6935943,6.17941607 10.5986937,6.24311201 10.4871055,6.30947833 L9.33899181,6.99231124 L9.35377407,5.656569 C9.36105765,4.99841646 9.26649913,4.36086044 9.06348227,3.7732923 C8.78905941,2.97906208 8.33232614,2.35283128 7.68411972,1.89961526 Z M10.2482759,14.4213323 C10.2483527,14.4308303 10.2484162,14.4403359 10.2484667,14.4498493 C10.2483223,14.4226081 10.2444248,14.3972987 10.2374824,14.3741935 Z" id="🎨-icon-colour" stroke="#F4C14D" stroke-width="1.5"></path>
        <g id="atoms-/-spacing-/-boundingBox">
            <rect id="boundingBox" x="0" y="0" width="16" height="16"></rect>
        </g>
    </g>
</svg>

<svg width="16" height="16" xmlns="http://www.w3.org/2000/svg"><g fill="none" fill-rule="evenodd"><path d="M7.684 1.9c-.129 1.041-.779 2.077-1.81 2.917C3.86 6.46 2.735 8.207 2.75 9.79a4.726 4.726 0 003.015 4.379c.058-.744.333-1.332 1.025-2.359l.027-.04c.45-.667.68-1.075.813-1.445l.467-1.301.836 1.101c.816 1.074 1.25 2.43 1.309 4.01 1.746-.683 2.817-2.071 2.988-3.96.145-1.604-.5-3.229-1.826-4.784-.225.324-.434.567-.63.724-.08.064-.175.128-.287.194l-1.148.683.015-1.335a5.577 5.577 0 00-.29-1.884c-.275-.794-.732-1.42-1.38-1.873zm2.564 12.521v.029a.267.267 0 00-.01-.076z" stroke="#F4C14D" stroke-width="1.5"/><path d="M0 0h16v16H0z"/></g></svg>
